X:2330
T:Untitled
T:Gyn ennym 
C:Traditional
O:Isle of Man
B:Kiaull Vannin 330
L:1/4
M:3/4 
K:D 
F|B c d|e d c|B2 B|e f g|f d e|f2 f/f/| 
b a b|a f d/e/|f2 d/e/|f f g|f/e/ d c|(B2 B|B2)|| 

